public/images/broadcasters/kan.svg

<svg fill="none" viewBox="0 0 46 29" xmlns="http://www.w3.org/2000/svg"><path d="m14.82 21.292h-3.516v-16.242h3.516zm13.165-1.642-6.489-6.49 6.477-6.475-2.538-2.535-9.008 9.009 9.023 9.024zm16.666-6.5c-.0021-2.1476-.8562-4.20664-2.3748-5.72522-1.5185-1.51859-3.5776-2.37266-5.7252-2.37478h-3.92v3.52h3.922c.6049 0 1.2038.11914 1.7627.35061.5588.23148 1.0666.57075 1.4943.99846.4277.42773.7669.93543.9984 1.49433.2315.5588.3506 1.1577.3506 1.7626s-.1191 1.2038-.3506 1.7626c-.2315.5589-.5707 1.0666-.9984 1.4943s-.9355.767-1.4943.9985c-.5589.2315-1.1578.3506-1.7627.3506h-3.922v3.515h3.922c2.1531-.0079 4.2151-.8696 5.7337-2.396 1.5185-1.5265 2.3695-3.5929 2.3663-5.746m-39.73697-10.805h-3.51601v24.332h3.51601z" fill="#fff"/></svg>

<svg viewBox="0 0 46 29" fill="none" xmlns="http://www.w3.org/2000/svg">
<path d="M14.82 21.292H11.304V5.05H14.82V21.292ZM27.985 19.65L21.496 13.16L27.973 6.685L25.435 4.15L16.427 13.159L25.45 22.183L27.985 19.65ZM44.651 13.15C44.6489 11.0024 43.7948 8.94336 42.2762 7.42478C40.7577 5.90619 38.6986 5.05212 36.551 5.05H32.631V8.57H36.553C37.1579 8.57 37.7568 8.68914 38.3157 8.92061C38.8745 9.15209 39.3823 9.49136 39.81 9.91907C40.2377 10.3468 40.5769 10.8545 40.8084 11.4134C41.0399 11.9722 41.159 12.5711 41.159 13.176C41.159 13.7809 41.0399 14.3798 40.8084 14.9386C40.5769 15.4975 40.2377 16.0052 39.81 16.4329C39.3823 16.8606 38.8745 17.1999 38.3157 17.4314C37.7568 17.6629 37.1579 17.782 36.553 17.782H32.631V21.297H36.553C38.7061 21.2891 40.7681 20.4274 42.2867 18.901C43.8052 17.3745 44.6562 15.3081 44.653 13.155M4.91603 2.35H1.40002V26.682H4.91603V2.35Z" fill="#ffffff"/>
</svg>
